X: 539
%
U:~=!turn!
T: Paddy O Carrol
C:
O:Scotland
B:Keith Norman MacDonald : "The Skye collection of the best reels & strathspeys extant" : 1887
Z:Ralph Palmer
R:Jig
M:6/8
L:1/8
K:D
A | FDD FDD | FGF FED | AFF dFF | EFE EAG | FDD FDD | FGF FED | AFF dAF | DED D2 ::
a | fdd ecc | dcB AFA | fda eca | dB^g a2 =g | fdd ecc | dcB AFE | DFA dAF | DED D2 :|


